packages/heroicons/src/prism/dollar-o.svg

<!-- Generated by IcoMoon.io -->
<svg version="1.1" xmlns="http://www.w3.org/2000/svg" width="16" height="16" viewBox="0 0 16 16">
<title>dollar-o</title>
<path fill="#4a4a4a" d="M8 0c-4.418 0-8 3.582-8 8s3.582 8 8 8c4.418 0 8-3.582 8-8s-3.582-8-8-8zM8 14.4c-3.535 0-6.4-2.865-6.4-6.4s2.865-6.4 6.4-6.4c3.535 0 6.4 2.865 6.4 6.4s-2.865 6.4-6.4 6.4zM8.533 7.467v-2.133h2.133v-1.067h-2.133v-1.067h-1.067v1.067h-2.133v4.267h2.133v2.133h-2.133v1.067h2.133v1.067h1.067v-1.067h2.133l-0-4.267h-2.133zM7.467 7.467h-1.067v-2.133h1.067v2.133zM9.6 10.667h-1.067v-2.133h1.067v2.133z"></path>
</svg>

<svg xmlns="http://www.w3.org/2000/svg" aria-hidden="true" fill="currentColor" viewBox="0 0 16 16">
  <path d="M8 0a8 8 0 100 16A8 8 0 008 0zm0 14.4c-3.535 0-6.4-2.865-6.4-6.4S4.465 1.6 8 1.6s6.4 2.865 6.4 6.4-2.865 6.4-6.4 6.4zm.533-6.933V5.334h2.133V4.267H8.533V3.2H7.466v1.067H5.333v4.267h2.133v2.133H5.333v1.067h2.133v1.067h1.067v-1.067h2.133V7.467H8.533zm-1.066 0H6.4V5.334h1.067v2.133zm2.133 3.2H8.533V8.534H9.6v2.133z"/>
</svg>
